X: 34179
T: Reel Of Bogie, The
R: reel
M: 4/4
K: Edorian
(3FGA|BE E2 BA (3FGA|BE E2 D2 (3FGA|BE E2 BA (3FGA|dBAF E2 (3FGA|
BE E2 BAFA|BE E2 D2 (3FGA|B3 c d2 ec|dBAF E2:|
FE|D2 (3FGA d3 B|AF F2 AFEF|D2 (3FGA d3 B|ABAF EGFE|
D2 (3FGA d3B|ABAF ABde|fded Beec|dBAF E2:|

